src/logo.svg

<?xml version="1.0" encoding="UTF-8"?>
<svg width="160px" height="26px" viewBox="0 0 160 26" version="1.1" xmlns="http://www.w3.org/2000/svg" xmlns:xlink="http://www.w3.org/1999/xlink">
    <title>Ordergroove Logo</title>
    <g id="Page-1" stroke="none" stroke-width="1" fill="none" fill-rule="evenodd">
        <g id="Design_signin-1" transform="translate(-197.000000, -88.000000)" fill-rule="nonzero">
            <g id="Ordergroove-Logo" transform="translate(197.000000, 88.000000)">
                <path d="M86.746988,12.7657296 C86.746988,10.7737617 85.4618474,9.18875502 82.9986613,9.18875502 C80.5783133,9.18875502 79.2289157,10.7523427 79.2289157,12.7657296 C79.2289157,14.7791165 80.5783133,16.3641232 82.9986613,16.3641232 C85.4190094,16.3641232 86.746988,14.7362784 86.746988,12.7657296 M87.0896921,20.4337349 C87.0896921,19.3413655 86.6398929,18.5274431 86.1472557,18.0990629 C85.6974565,18.334672 84.562249,18.8273092 82.9344043,18.8273092 C79.0789826,18.8273092 76.2730924,16.3855422 76.2730924,12.7657296 C76.2730924,9.08165997 79.1004016,6.68273092 82.9986613,6.68273092 C83.9839357,6.68273092 85.1619813,6.96117805 85.9330656,7.23962517 C86.4257028,6.6398929 87.6465863,5.44042838 90.0026774,5.44042838 L90.0026774,8.20348059 L89.7028112,8.20348059 C89.103079,8.20348059 88.2463186,8.31057564 87.8179384,8.63186078 C89.103079,9.76706827 89.7028112,11.2449799 89.7028112,12.7443106 C89.7028112,14.2222222 89.210174,15.5073628 88.2248996,16.5997323 C88.7175368,17.0923695 90.0240964,18.398929 90.0240964,20.3694779 C90.0240964,23.2824632 87.8607764,25.6171352 83.0200803,25.6171352 C80.2784471,25.6171352 76.6372155,24.2891566 76.6372155,21.8259705 C76.6372155,20.7121821 77.4082999,19.8982597 78.5220884,19.8982597 C79.6787149,19.8982597 80.2784471,20.7764391 80.2784471,21.6117805 C80.2784471,21.9544846 80.1713521,22.2115127 80.085676,22.3186078 C80.4712182,22.746988 81.4564926,23.1539491 83.1271754,23.1539491 C85.3547523,23.1539491 87.0896921,22.1686747 87.0896921,20.4337349" id="Shape" fill="#003345"></path>
                <path d="M11.6091031,13.4082999 C11.6091031,11.0093708 9.95983936,9.18875502 7.34672021,9.18875502 C4.73360107,9.18875502 3.08433735,11.0093708 3.08433735,13.4082999 C3.08433735,15.7858099 4.73360107,17.7135207 7.34672021,17.7135207 C9.98125837,17.7135207 11.6091031,15.7858099 11.6091031,13.4082999 M14.6077644,13.4082999 C14.6077644,17.4350736 11.5448461,20.1338688 7.36813922,20.1338688 C3.1914324,20.1338688 0.128514056,17.4350736 0.128514056,13.4082999 C0.128514056,9.33868809 3.17001339,6.68273092 7.36813922,6.68273092 C11.5876841,6.68273092 14.6077644,9.3601071 14.6077644,13.4082999" id="Shape" fill="#003345"></path>
                <path d="M22.0829987,17.2851406 L24.9959839,17.6706827 L24.9959839,19.7269076 L17.3279786,19.7269076 L17.3279786,17.6706827 L19.1485944,17.2851406 L19.1485944,9.65997323 L16.9852744,9.25301205 L16.9852744,7.11111111 L21.0548862,6.91834003 L21.6760375,9.57429719 C23.1539491,7.64658635 24.8246319,6.66131191 26.3668005,6.66131191 C27.523427,6.66131191 28.8942436,7.3253012 28.8942436,9.06024096 C28.8942436,10.1311914 28.0374833,11.0736278 26.9236948,11.0736278 C25.8955823,11.0736278 25.3172691,10.3453815 25.3172691,9.3601071 L25.3172691,9.25301205 C24.7175368,9.25301205 22.896921,10.4310576 22.0829987,12.4872825 L22.0829987,17.2851406 L22.0829987,17.2851406 Z" id="Path" fill="#003345"></path>
                <path d="M40.6746988,9.72423025 C39.8179384,9.33868809 38.9825971,9.16733601 37.9544846,9.16733601 C34.9344043,9.16733601 33.0281124,11.0307898 33.0281124,13.5796519 C33.0281124,16 34.5060241,17.6706827 36.9906292,17.6706827 C39.0040161,17.6706827 40.2677376,16.5140562 40.6746988,16.021419 L40.6746988,9.72423025 Z M38.5542169,2.44176707 L38.5542169,0.235609103 L43.6091031,-7.10542736e-15 L43.6091031,17.3065596 L45.708166,17.6921017 L45.708166,19.7483266 L42.0026774,19.7483266 L41.2958501,18.184739 C40.4605087,19.0629183 38.875502,20.1767068 36.54083,20.1767068 C32.7282463,20.1767068 30.0508701,17.6278447 30.0508701,13.708166 C30.0508701,9.80990629 33.2208835,6.70414993 37.4190094,6.70414993 C38.5327979,6.70414993 39.9036145,6.98259705 40.6746988,7.26104418 L40.6746988,2.76305221 L38.5542169,2.44176707 Z" id="Shape" fill="#003345"></path>
                <path d="M57.9598394,12.2302544 C57.9812584,12.1659973 57.9812584,12.0803213 57.9812584,11.9946452 C57.9812584,10.8594378 57.210174,9.18875502 54.4899598,9.18875502 C52.4123159,9.18875502 50.8273092,10.3025435 50.6131191,12.2302544 L57.9598394,12.2302544 L57.9598394,12.2302544 Z M59.0950469,16.7282463 L60.2088353,18.7202142 C59.6519411,19.0629183 57.7242303,20.1552878 54.6184739,20.1552878 C50.4203481,20.1552878 47.7643909,17.5635877 47.7643909,13.5368139 C47.7643909,9.61713521 50.37751,6.70414993 54.4899598,6.70414993 C58.9879518,6.70414993 60.6800535,9.65997323 60.6800535,12.5729585 C60.6800535,13.2797858 60.5729585,13.9651941 60.3801874,14.5435074 L50.6559572,14.5435074 C50.8273092,16.5997323 52.3694779,17.7135207 54.811245,17.7135207 C56.8032129,17.6921017 58.3453815,17.1137885 59.0950469,16.7282463 L59.0950469,16.7282463 Z" id="Shape" fill="#003345"></path>
                <path d="M68.2838019,17.2851406 L71.1967871,17.6706827 L71.1967871,19.7269076 L63.5287818,19.7269076 L63.5287818,17.6706827 L65.3493976,17.2851406 L65.3493976,9.65997323 L63.1860776,9.25301205 L63.1860776,7.11111111 L67.2556894,6.91834003 L67.8768407,9.57429719 C69.3547523,7.64658635 71.0254351,6.66131191 72.5676037,6.66131191 C73.7242303,6.66131191 75.0950469,7.3253012 75.0950469,9.06024096 C75.0950469,10.1311914 74.2382865,11.0736278 73.124498,11.0736278 C72.0963855,11.0736278 71.5180723,10.3453815 71.5180723,9.3601071 L71.5180723,9.25301205 C70.91834,9.25301205 69.0977242,10.4310576 68.2838019,12.4872825 L68.2838019,17.2851406 L68.2838019,17.2851406 Z" id="Path" fill="#003345"></path>
                <path d="M97.8848728,17.2851406 L100.797858,17.6706827 L100.797858,19.7269076 L93.1298527,19.7269076 L93.1298527,17.6706827 L94.9504685,17.2851406 L94.9504685,9.65997323 L92.7871486,9.25301205 L92.7871486,7.11111111 L96.8567604,6.91834003 L97.4779116,9.57429719 C98.9558233,7.64658635 100.626506,6.66131191 102.168675,6.66131191 C103.325301,6.66131191 104.696118,7.3253012 104.696118,9.06024096 C104.696118,10.1311914 103.839357,11.0736278 102.725569,11.0736278 C101.697456,11.0736278 101.119143,10.3453815 101.119143,9.3601071 L101.119143,9.25301205 C100.519411,9.25301205 98.6987952,10.4310576 97.8848728,12.4872825 L97.8848728,17.2851406 L97.8848728,17.2851406 Z" id="Path" fill="#003345"></path>
                <path d="M139.609103,9.21017403 L139.609103,7.11111111 L145.991968,7.11111111 L145.991968,9.21017403 L144.21419,9.5957162 L139.373494,19.7697456 L136.396252,19.7697456 L131.448461,9.5957162 L129.670683,9.21017403 L129.670683,7.11111111 L136.353414,7.11111111 L136.353414,9.21017403 L134.597055,9.51004016 L137.145917,15.0575636 C137.467202,15.7643909 137.874163,16.7710843 138.024096,17.3493976 C138.216867,16.7496653 138.60241,15.7643909 138.880857,15.1218206 L141.386881,9.53145917 L139.609103,9.21017403 Z" id="Path" fill="#003345"></path>
                <path d="M157.151272,12.2302544 C157.172691,12.1659973 157.172691,12.0803213 157.172691,11.9946452 C157.172691,10.8594378 156.401606,9.18875502 153.681392,9.18875502 C151.603748,9.18875502 150.018742,10.3025435 149.804552,12.2302544 L157.151272,12.2302544 L157.151272,12.2302544 Z M158.286479,16.7282463 L159.400268,18.7202142 C158.843373,19.0629183 156.915663,20.1552878 153.809906,20.1552878 C149.61178,20.1552878 146.955823,17.5635877 146.955823,13.5368139 C146.955823,9.61713521 149.568942,6.70414993 153.681392,6.70414993 C158.179384,6.70414993 159.871486,9.65997323 159.871486,12.5729585 C159.871486,13.2797858 159.764391,13.9651941 159.57162,14.5435074 L149.84739,14.5435074 C150.018742,16.5997323 151.56091,17.7135207 154.002677,17.7135207 C155.994645,17.6921017 157.536814,17.1137885 158.286479,16.7282463 L158.286479,16.7282463 Z" id="Shape" fill="#003345"></path>
                <path d="M116.883534,12.5943775 C117.097724,10.4738956 118.682731,8.80321285 121.103079,8.80321285 C121.488621,8.80321285 121.874163,8.84605087 122.216867,8.93172691 C124.165997,9.40294511 125.365462,11.0950469 125.365462,13.1084337 C125.365462,15.5073628 123.716198,17.3279786 121.103079,17.3279786 C120.760375,17.3279786 120.374833,17.2851406 120.074967,17.2208835 C119.496653,18.0348059 118.789826,18.7202142 117.868809,19.2128514 C118.832664,19.5983936 119.903614,19.8340027 121.103079,19.8340027 C125.301205,19.8340027 128.342704,17.1780455 128.342704,13.1084337 C128.342704,9.44578313 125.815261,6.89692102 122.216867,6.44712182 C121.852744,6.4042838 121.488621,6.38286479 121.103079,6.38286479 C117.119143,6.38286479 114.141901,8.84605087 113.884873,12.5943775 L116.883534,12.5943775 Z" id="Path" fill="#00A7E1"></path>
                <path d="M117.461847,13.643909 C117.247657,15.7643909 115.662651,17.4350736 113.242303,17.4350736 C112.85676,17.4350736 112.471218,17.3922356 112.128514,17.3065596 C110.179384,16.8353414 108.97992,15.1432396 108.97992,13.1298527 C108.97992,10.7309237 110.629183,8.9103079 113.242303,8.9103079 C113.585007,8.9103079 113.970549,8.95314592 114.270415,9.01740295 C114.848728,8.20348059 115.555556,7.51807229 116.476573,7.02543507 C115.512718,6.6398929 114.441767,6.4042838 113.242303,6.4042838 C109.044177,6.4042838 106.002677,9.06024096 106.002677,13.1298527 C106.002677,16.7925033 108.53012,19.3413655 112.128514,19.7911647 C112.492637,19.8340027 112.85676,19.8554217 113.242303,19.8554217 C117.226238,19.8554217 120.203481,17.3922356 120.460509,13.643909 L117.461847,13.643909 L117.461847,13.643909 Z" id="Path" fill="#00A7E1"></path>
            </g>
        </g>
    </g>
</svg>

<?xml version="1.0" encoding="UTF-8"?>
<svg xmlns="http://www.w3.org/2000/svg" width="160" height="26" viewBox="0 0 160 26"><g><g><g><path fill="#e5e9ec" d="M87.087 20.433c0-1.092-.45-1.906-.943-2.334-.45.235-1.585.728-3.213.728-3.855 0-6.661-2.442-6.661-6.062 0-3.684 2.827-6.083 6.726-6.083.985 0 2.163.279 2.934.557.493-.6 1.713-1.799 4.07-1.799v2.763h-.3c-.6 0-1.457.107-1.885.428C89.1 9.767 89.7 11.245 89.7 12.744c0 1.478-.493 2.763-1.478 3.855.492.493 1.799 1.8 1.799 3.77 0 2.913-2.163 5.248-7.004 5.248-2.742 0-6.383-1.328-6.383-3.791 0-1.114.771-1.928 1.885-1.928 1.157 0 1.756.878 1.756 1.713 0 .343-.107.6-.192.707.385.429 1.37.836 3.041.836 2.228 0 3.963-.986 3.963-2.72m-.353-7.674c0-1.989-1.284-3.572-3.743-3.572-2.418 0-3.765 1.562-3.765 3.572s1.347 3.594 3.765 3.594c2.417 0 3.743-1.626 3.743-3.594"/></g><g><path fill="#e5e9ec" d="M14.61 13.406c0 4.026-3.064 6.725-7.24 6.725-4.177 0-7.24-2.699-7.24-6.725 0-4.07 3.041-6.726 7.24-6.726 4.22 0 7.24 2.677 7.24 6.726m-3 0c0-2.4-1.649-4.22-4.262-4.22-2.613 0-4.262 1.82-4.262 4.22 0 2.377 1.65 4.305 4.262 4.305 2.635 0 4.263-1.928 4.263-4.305"/></g><g><path fill="#e5e9ec" d="M22.088 17.284l2.913.385v2.057h-7.668v-2.057l1.82-.385V9.659l-2.163-.407V7.11l4.07-.193.62 2.656c1.479-1.928 3.15-2.913 4.692-2.913 1.156 0 2.527.664 2.527 2.399 0 1.07-.857 2.013-1.97 2.013-1.029 0-1.607-.728-1.607-1.713v-.107c-.6 0-2.42 1.178-3.234 3.234v4.798z"/></g><g><path fill="#e5e9ec" d="M38.553 2.442V.236L43.608 0v17.307l2.1.385v2.056h-3.706l-.707-1.563c-.835.878-2.42 1.992-4.755 1.992-3.813 0-6.49-2.55-6.49-6.469 0-3.898 3.17-7.004 7.368-7.004 1.114 0 2.485.279 3.256.557V2.763zm2.11 7.282c-.855-.385-1.69-.557-2.716-.557-3.016 0-4.92 1.864-4.92 4.413 0 2.42 1.476 4.09 3.958 4.09 2.01 0 3.272-1.156 3.679-1.649z"/></g><g><path fill="#e5e9ec" d="M60.204 18.716c-.556.343-2.484 1.435-5.59 1.435-4.198 0-6.854-2.592-6.854-6.618 0-3.92 2.613-6.833 6.726-6.833 4.498 0 6.19 2.956 6.19 5.869a6.34 6.34 0 0 1-.3 1.97h-9.724c.17 2.057 1.713 3.17 4.155 3.17 1.992-.021 3.534-.6 4.284-.985zm-2.227-6.722c0-1.136-.771-2.808-3.491-2.808-2.078 0-3.663 1.115-3.877 3.044h7.346c.022-.064.022-.15.022-.236z"/></g><g><path fill="#e5e9ec" d="M68.288 17.284l2.913.385v2.057h-7.668v-2.057l1.82-.385V9.659l-2.163-.407V7.11l4.07-.193.62 2.656c1.479-1.928 3.15-2.913 4.692-2.913 1.156 0 2.527.664 2.527 2.399 0 1.07-.857 2.013-1.97 2.013-1.029 0-1.607-.728-1.607-1.713v-.107c-.6 0-2.42 1.178-3.234 3.234v4.798z"/></g><g><path fill="#e5e9ec" d="M97.888 17.284l2.913.385v2.057h-7.668v-2.057l1.82-.385V9.659l-2.163-.407V7.11l4.07-.193.62 2.656c1.479-1.928 3.15-2.913 4.692-2.913 1.156 0 2.527.664 2.527 2.399 0 1.07-.857 2.013-1.97 2.013-1.029 0-1.607-.728-1.607-1.713v-.107c-.6 0-2.42 1.178-3.234 3.234v4.798z"/></g><g><path fill="#e5e9ec" d="M139.608 9.21v-2.1h6.383v2.1l-1.777.385-4.841 10.174h-2.977l-4.948-10.174-1.778-.386V7.11h6.683v2.1l-1.757.299 2.55 5.547c.32.707.727 1.714.877 2.292.193-.6.579-1.585.857-2.227l2.506-5.59z"/></g><g><path fill="#e5e9ec" d="M159.404 18.716c-.556.343-2.484 1.435-5.59 1.435-4.198 0-6.854-2.592-6.854-6.618 0-3.92 2.613-6.833 6.726-6.833 4.498 0 6.19 2.956 6.19 5.869a6.34 6.34 0 0 1-.3 1.97h-9.724c.17 2.057 1.713 3.17 4.155 3.17 1.992-.021 3.534-.6 4.284-.985zm-2.225-6.722c0-1.136-.772-2.808-3.493-2.808-2.08 0-3.665 1.115-3.88 3.044h7.352c.02-.064.02-.15.02-.236z"/></g><g><path fill="#00a7e1" d="M116.879 12.592c.214-2.121 1.799-3.792 4.22-3.792.385 0 .77.043 1.113.129 1.95.471 3.149 2.163 3.149 4.177 0 2.399-1.65 4.22-4.263 4.22a5.22 5.22 0 0 1-1.028-.108c-.578.814-1.285 1.5-2.206 1.992a8.614 8.614 0 0 0 3.234.621c4.198 0 7.24-2.656 7.24-6.725 0-3.663-2.528-6.212-6.126-6.662a9.435 9.435 0 0 0-1.114-.064c-3.984 0-6.961 2.463-7.218 6.212z"/></g><g><path fill="#00a7e1" d="M117.46 13.64c-.215 2.12-1.8 3.79-4.22 3.79a4.67 4.67 0 0 1-1.114-.128c-1.95-.47-3.149-2.163-3.149-4.176 0-2.4 1.65-4.22 4.263-4.22.342 0 .728.043 1.028.107.578-.814 1.285-1.5 2.206-1.992a8.614 8.614 0 0 0-3.234-.621c-4.198 0-7.24 2.656-7.24 6.726 0 3.662 2.527 6.211 6.126 6.66.364.044.728.065 1.114.065 3.984 0 6.96-2.463 7.218-6.211h-2.999z"/></g></g></g></svg>
